X:1
T:Amazing Grace - New Britain
C:Traditional tune, NEW BRITAIN
M:3/4
L:1/4
Q:1/4=80
K:G
D | G2 B/G/ | B2 A | G2 E | D2 D |
G2 B/G/ | B2 A/B/ | d3 | d2 B |
d2 B/G/ | B2 A | G2 E | D2 D |
G2 B/G/ | B2 A | G3 | G2 |
